X:45061
T: Pinky House
O: Trad
R: strathspey
B: RSCDS 45-6
B: William McGibbon Collection
Z: 2005 John Chambers <jc:trillian.mit.edu>
M: C
L: 1/8
%--------------------
K: D
|: D>E \
| "D"F>E F<A "A7"F2 ED | "D"A>F A<B "D/F#"A2 dc \
| "G"B>A Bd "D/F#"AF ED | "Em"E4- "A7"E2 ||
y2 D>E \
| "D"F>E F/G/A "Bm"F2 ED | "F#m"A>F A<B "D"A2 dc \
| "G"B>A Bd "A7"d/e/f e>d | "D"d4- d2 :|
|: "E7"c>d \
| "A"e>d ef "A/C#"e2 de | "Bm"fe/d/ cB "F#m"A2 Bc \
| "Bm"d>c de "F#7"d2 c2 | "Bm"B4 z2 ||
y2 B/c/d \
| "D"A>F ED "/F#"FA "G"Bd | "D"A>F ED "G"B,2 "F#7"f>e \
| "Bm"d>c B/c/d "A7"AF ED | "D"D4- D2 :|
